src/assets/images/expertise/js.svg

<?xml version="1.0" encoding="utf-8"?>
<svg width="93" height="94" viewBox="0 0 93 94" fill="none" xmlns="http://www.w3.org/2000/svg">
<g opacity="0.6">
<path d="M92.0001 0.188477H1.00024C0.447959 0.188477 0.000244141 0.636195 0.000244141 1.18848V92.1883C0.000244141 92.7406 0.447962 93.1883 1.00025 93.1883H92.0001C92.5524 93.1883 93.0001 92.7406 93.0001 92.1883V1.18848C93.0001 0.636192 92.5524 0.188477 92.0001 0.188477Z" fill="#1F3D56"/>
<path d="M62.4728 72.8444C64.3461 75.903 66.7833 78.1513 71.0937 78.1513C74.7148 78.1513 77.028 76.3415 77.028 73.8408C77.028 70.8441 74.6514 69.7828 70.6656 68.0394L68.4809 67.102C62.1746 64.4153 57.9852 61.0496 57.9852 53.9344C57.9852 47.3801 62.9791 42.3906 70.7837 42.3906C76.3401 42.3906 80.3347 44.3244 83.2132 49.3878L76.408 53.7573C74.9097 51.0706 73.2933 50.0122 70.7837 50.0122C68.224 50.0122 66.6017 51.636 66.6017 53.7573C66.6017 56.379 68.2255 57.4404 71.975 59.0642L74.1598 60.0001C81.585 63.1842 85.7774 66.4303 85.7774 73.7286C85.7774 81.5967 79.5966 85.9072 71.296 85.9072C63.1799 85.9072 57.9365 82.0396 55.3709 76.9703L62.4728 72.8444ZM31.6013 73.6017C32.9742 76.0374 34.223 78.0967 37.2256 78.0967C40.0968 78.0967 41.908 76.9733 41.908 72.6052V42.8896H50.6471V72.7233C50.6471 81.7724 45.3417 85.8909 37.5976 85.8909C30.6004 85.8909 26.5483 82.2698 24.4875 77.9084L31.6013 73.6017Z" fill="white"/>
</g>
</svg>

<svg width="93" height="94" fill="none" xmlns="http://www.w3.org/2000/svg"><g opacity=".6"><path d="M92 .188H1a1 1 0 00-1 1v91a1 1 0 001 1h91a1 1 0 001-1v-91a1 1 0 00-1-1z" fill="#1F3D56"/><path d="M62.473 72.844c1.873 3.059 4.31 5.307 8.62 5.307 3.622 0 5.935-1.81 5.935-4.31 0-2.997-2.377-4.058-6.362-5.802l-2.185-.937c-6.306-2.687-10.496-6.052-10.496-13.168 0-6.554 4.994-11.543 12.799-11.543 5.556 0 9.55 1.933 12.43 6.997l-6.806 4.37c-1.498-2.687-3.115-3.746-5.624-3.746-2.56 0-4.182 1.624-4.182 3.745 0 2.622 1.623 3.683 5.373 5.307L74.16 60c7.425 3.184 11.617 6.43 11.617 13.729 0 7.868-6.18 12.178-14.481 12.178-8.116 0-13.36-3.867-15.925-8.937l7.102-4.126zm-30.872.758c1.373 2.435 2.622 4.495 5.625 4.495 2.87 0 4.682-1.124 4.682-5.492V42.89h8.74v29.833c0 9.05-5.306 13.168-13.05 13.168-6.998 0-11.05-3.621-13.11-7.983l7.113-4.306z" fill="#fff"/></g></svg>
